svg/align-left.svg

<svg width="32" height="32" fill="none" xmlns="http://www.w3.org/2000/svg"><path fill-rule="evenodd" clip-rule="evenodd" d="M7.5 11a1 1 0 0 1 1-1h16a1 1 0 0 1 0 2h-16a1 1 0 0 1-1-1zM7.5 16a1 1 0 0 1 1-1h16a1 1 0 0 1 0 2h-16a1 1 0 0 1-1-1zM7.5 21c0-.552.414-1 .923-1h10.154c.51 0 .923.448.923 1s-.413 1-.923 1H8.423c-.51 0-.923-.448-.923-1z" fill="#000"/></svg>

<svg width="32" height="32" viewBox="0 0 32 32" fill="none" xmlns="http://www.w3.org/2000/svg">
<path fill-rule="evenodd" clip-rule="evenodd" d="M7.5 11C7.5 10.448 7.948 10 8.5 10H24.5C25.052 10 25.5 10.448 25.5 11C25.5 11.552 25.052 12 24.5 12H8.5C7.948 12 7.5 11.552 7.5 11Z" fill="black"/>
<path fill-rule="evenodd" clip-rule="evenodd" d="M7.5 16C7.5 15.448 7.948 15 8.5 15H24.5C25.052 15 25.5 15.448 25.5 16C25.5 16.552 25.052 17 24.5 17H8.5C7.948 17 7.5 16.552 7.5 16Z" fill="black"/>
<path fill-rule="evenodd" clip-rule="evenodd" d="M7.5 21C7.5 20.448 7.91354 20 8.42308 20H18.5769C19.0865 20 19.5 20.448 19.5 21C19.5 21.552 19.0865 22 18.5769 22H8.42308C7.91354 22 7.5 21.552 7.5 21Z" fill="black"/>
</svg>
